X:1
T:D Major Samuel Babcock, 1795
T:William Cowper, 1779 O Lord, I Will Praise Thee!        77. 77
T:Ashford
T:Transcribed from The Middlesex Harmony, 1795.
%%score [ 1 2 3 ]
L:1/8
Q:1/4=130
M:2/4
K:D
V:1 treble nm="Tr." snm="Tr."
V:2 treble-8 nm="T." snm="T."
V:3 bass nm="B." snm="B."
V:1
"^1.  Je–sus   is      become    at    length      My  sal – va–tion and my strength;   And his  praises   shall     pro  –  long,         While  I   live," F2 F2 | %1
 A3 A | d2 A2 | F3 z | F2 A2 | F2 A2 | F2 E2 | F3 z |: d2 d2 | d2 d2 | cB A^G | A3 z | F2 F2 | %13
 F2 z2 | %14
"^1.  While  I  live,    While  I   live,  my     plea – sant  song.                 Praise ye, then, his glorious name,    Publish    his  ex –  al – ted  fame!" A2 A2 | %15
 A2 z2 | d2 A2 | F2 FB | AG FE | F4 :| z4 | A2 A2 | c2 c2 | e2 e2 | (d2 e2) | f2 f2 | e2 d2 | %27
 c2 B2 | A3 z | %29
"^1. Still his worth your praise exceeds,        Ex – cel – lent     are       all  his  deeds.            Raise a – gain  the  joyful  sound,     Let the   nations" d2 d2 | %30
 d3 d | ed cB | A3 z | G3 F | E2 AG | F2 E2 | D4 | z4 |: A2 c2 | d3 d | c2 A2 | A3 z | d2 d2 | %43
 e2 d2 | %44
"^roll  it  round!     Zi –on  shout,    Zi –on  shout,    Zi–on shout, for this is    he,          God the Savior dwells in thee, for  this is     he," c2 B2 | %45
 A3 z | F2 F2 | F2 z2 | A2 A2 | A2 z2 | c2 c2 | c3 c | d2 A2 | F3 z | F2 A2 | F2 D2 | F2 A2 | %57
 A3 A | d2 d2 | d3 z | %60
"^God the   Sa  – vior   dwells  in         thee,    God  the  Sa  –  vior   dwells  in        thee." d2 A2 | %61
 F2 FB | AG FE | F4 | d2 A2 | F2 FB | AG FE | F4 :| %68
V:2
"^2. Here in  the    fair   gospel    field,       Wells of   free sal –va–tion yield      Streams of  life, a     plen – teous   store,       And my  soul," A2 A2 | %1
 F3 F | B2 c2 | d3 z | d2 A2 | d2 A2 | d2 c2 | d3 z |: B2 B2 | B2 B2 | ed cB | A3 z | d2 d2 | %13
 d2 z2 | %14
"^2. And my soul,     And my soul  shall   thirst  no     more.                   I  will  praise thee every    day,      Now thine  anger’s turned away!" f2 f2 | %15
 f2 z2 | F2 A2 | d2 dg | fe dc | d4 :| z4 | A2 A2 | A2 A2 | c2 c2 | (d2 c2) | d2 d2 | g2 f2 | %27
 e2 d2 | c3 z | %29
"^2. Com-for-ta–ble  thoughts a  –  rise        From  the   blee–ding     sac–ri–fice.                  Je – sus  is      become at    length     My sal–va–tion" B2 B2 | %30
 B3 B | ed cB | A3 z | d3 A | Bc d2 | A2 c2 | d4 | z4 |: d2 e2 | f3 d | e2 e2 | e3 z | f2 f2 | %43
 g2 f2 | %44
"^and my strength; And his praise,  And his praise, And his  praises shall prolong,        While I  live, my pleasant song.  And his praises," e2 d2 | %45
 c3 z | d2 d2 | d2 z2 | f2 f2 | f2 z2 | e2 e2 | e3 e | d2 d2 | d3 z | A2 F2 | A2 A2 | d2 f2 | %57
 e3 c | d2 d2 | d3 z | %60
"^While  I  live, my       plea – sant    song.      While I    live,  my       plea – sant   song." F2 A2 | %61
 d2 d2 | fe dc | d4 | F2 A2 | d2 d2 | fe dc | d4 :| %68
V:3
 z4 | z4 | z4 | z4 | D,2 A,2 | D2 A,2 | D2 A,2 | D,3 z |: G,2 G,2 | G,2 G,2 | E,2 E,2 | A,3 z | %12
 D2 D2 | D2 z2 | D,2 D,2 | D,2 z2 | F,2 F,2 | A,2 B,2 | G,2 A,2 | D,4 :| z4 | A,2 A,2 | A,2 A,2 | %23
 A,2 A,2 | A,4 | D2 D2 | C2 D2 | E2 E,2 | A,3 z | G,2 G,2 | G,3 F, | E,2 E,2 | A,3 z | G,3 F, | %34
 E,2 D,2 | A,2 A,,2 | D,4 | z4 |: D,2 A,2 | D3 D | A,2 A,2 | A,3 z | D,2 D,2 | C,2 D,2 | E,2 E,2 | %45
 A,3 z | D2 D2 | D2 z2 | D,2 D,2 | D,2 z2 | A,2 A,2 | A,3 A, | D2 D2 | D3 z | D,2 D,2 | D,2 D,2 | %56
 D,2 D,2 | A,3 A, | D2 D2 | D3 z | D,2 D,2 | F,2 F,2 | A,2 A,2 | D,4 | D,2 D,2 | F,2 F,2 | %66
 A,2 [A,,A,]2 | D,4 :| %68

